!!!COM:	Martini, Johannes
!!!CDT:	~1440///-~1497//
!!!OTL:	Exaltabo te domine
!!!AGN:	Motet
!!!SCT:	Mar2047
!!!SCA:	Mar2047
!!!voices:	3
**kern	**kern	**kern
*staff3	*staff2	*staff1
*Ivox	*Ivox	*Ivox
*I"Tenor	*I"Faulx bourdon	*I"Superius
*I'T	*I'Fb	*I'S
*>[A,B,C,D,E,F,G,H,I,J,K,L,M,N,O]	*>[A,B,C,D,E,F,G,H,I,J,K,L,M,N,O]	*>[A,B,C,D,E,F,G,H,I,J,K,L,M,N,O]
*>A	*>A	*>A
*clefGv2	*clefGv2	*clefG2
*k[]	*k[]	*k[]
*M2/1	*M2/1	*M2/1
*met(C)	*met(C)	*met(C)
=1-	=1-	=1-
!!LO:TX:Z=8:t=Choir 1
!!section: Nec delectasti
!!!OMD: Nec delectasti
1e	1g	1cc
2e\	2g\	2cc\
2e\	2g\	2cc\
=2	=2	=2
1e	1g	1cc
1e	1g	1cc
=3	=3	=3
1e	1g	1cc
2e\	2g\	2cc\
2e\	2g\	2cc\
=4	=4	=4
1e	1g	1cc
1d	1f	1b
=5	=5	=5
2c\	2e\	2a/
1e	1g	1cc
4d\	4f\	4b\
4c\	4e\	4a/
=6	=6	=6
2B\	2d\	2g/
1A	1e	1a
2B\	[2d\	[2g/
=7	=7	=7
1A	2d\]	2g/]
.	2c\	2f#i/
1Gl	1dl	1gl
=8||	=8||	=8||
*>B	*>B	*>B
!!section: Domine Deus meus
!!!OMD: Domine Deus meus
!!LO:TX:Z=8:t=Choir 2
2e\	0r	2cc\
2e\	.	2cc\
1e	.	1cc
=9	=9	=9
2e\	0r	2cc\
2e\	.	2cc\
2e\	.	2cc\
[2e\	.	[2cc\
=10	=10	=10
2e\]	0r	2cc\]
2e\	.	2cc\
2d\	.	2b\
2c\	.	2a/
=11	=11	=11
1d	0r	1b
1c	.	1cc
=12	=12	=12
1r	0r	1r
1e	.	1cc
=13	=13	=13
2d\	0r	2b\
1e	.	1cc
4d\	.	4b\
4c\	.	4a/
=14	=14	=14
2B\	0r	2g/
1c	.	1a
2B\	.	[2g/
=15	=15	=15
1A	0r	2g/]
.	.	2f#i/
1Gl	.	1gl
=16||	=16||	=16||
*>C	*>C	*>C
!!section: Domine, aduxisti
!!!OMD: Domine, aduxisti
!!LO:TX:Z=8:t=Choir 1
2e\	2g\	2cc\
2e\	2g\	2cc\
2e\	2g\	2cc\
2e\	2g\	2cc\
=17	=17	=17
2e\	2g\	2cc\
2e\	2g\	2cc\
1e	1g	1cc
=18	=18	=18
1e	1g	1cc
1e	1g	1cc
=19	=19	=19
1e	1g	1cc
1e	1g	1cc
=20	=20	=20
2d\	2f\	2b\
2c\	2e\	2a/
2B\	2d\	2g/
2c\	[2g\	[2cc\
=21	=21	=21
1d	2g\]	2cc\]
.	2f\	2b\
1c	1g	1cc
=22	=22	=22
1r	1r	1r
1e	1g	1cc
=23	=23	=23
2e\	2g\	2cc\
2e\	2g\	2cc\
1e	1g	1cc
=24	=24	=24
1.e	1.g	1.cc
2e\	2g\	2cc\
=25	=25	=25
2e\	2g\	2cc\
2e\	2g\	2cc\
1e	1g	1cc
=26	=26	=26
1.d	1.f	1.b
[2e\	[2g\	[2cc\
=27	=27	=27
2e\]	2g\]	2cc\]
4d\	4f\	4b\
4c\	4e\	4a/
2B\	2d\	2g/
[2c\	[2e\	[2a/
=28	=28	=28
2c\]	2e\]	2a/]
2B\	1d	1g
1A	.	.
.	2c\	2f#i/
=29	=29	=29
0Gl	0dl	0gl
=30||	=30||	=30||
*>D	*>D	*>D
!!section: Psallite Domino
!!!OMD: Psallite Domino
!!LO:TX:Z=8:t=Choir 2
1e	0r	1cc
2e\	.	2cc\
2e\	.	2cc\
=31	=31	=31
2e\	0r	2cc\
2e\	.	2cc\
1e	.	1cc
=32	=32	=32
2d\	0r	2b\
2c\	.	2a/
1d	.	1b
=33	=33	=33
1c	0r	1cc
1r	.	1r
=34	=34	=34
1e	0r	1cc
2e\	.	2cc\
2e\	.	2cc\
=35	=35	=35
2e\	0r	2cc\
2e\	.	2cc\
1e	.	1cc
=36	=36	=36
1e	0r	1cc
2e\	.	2cc\
2e\	.	2cc\
=37	=37	=37
1e	0r	1cc
1d	.	1b
=38	=38	=38
2c\	0r	2a/
2e\	.	2cc\
2d\	.	2b\
[2c\	.	[2a/
=39	=39	=39
2c\]	0r	2a/]
2B\	.	1g
1A	.	.
.	.	2f#i/
=40	=40	=40
0Gl	0r	0gl
=41||	=41||	=41||
*>E	*>E	*>E
!!LO:TX:Z=8:t=Choir 1
!!section: Quoniam ira
!!!OMD: Quoniam ira
2e\	2g\	2cc\
2e\	2g\	2cc\
1e	1g	1cc
=42	=42	=42
1e	1g	1cc
1e	1g	1cc
=43	=43	=43
1e	1g	1cc
2e\	2g\	2cc\
2e\	2g\	2cc\
=44	=44	=44
2e\	2g\	2cc\
2e\	2g\	2cc\
1c	[1g	[1cc
=45	=45	=45
2e\	2g\]	2cc\]
1f	1a	1dd
2e\	[2g\	[2cc\
=46	=46	=46
1d	2g\]	2cc\]
.	2f\	2b\
1c	1g	1cc
=47	=47	=47
1r	1r	1r
1c	1g	1cc
=48	=48	=48
1e	1g	1cc
1e	1g	1cc
=49	=49	=49
1d	1f	1b
2c\	2e\	2a/
2e\	2g\	2cc\
=50	=50	=50
2d\	2f\	2b\
1c	1e	1a
2B\	[2d\	[2g/
=51	=51	=51
1A	4d\]	4g/]
.	4B\	4e/
.	2c\	2f#i/
1Gl	1dl	1gl
=52||	=52||	=52||
*>F	*>F	*>F
!!section: Ad vesperum
!!!OMD: Ad vesperum
!!LO:TX:Z=8:t=Choir 2
1e	0r	1cc
2e\	.	2cc\
2e\	.	2cc\
=53	=53	=53
1e	0r	1cc
2e\	.	2cc\
2e\	.	2cc\
=54	=54	=54
2e\	0r	2cc\
2e\	.	2cc\
1e	.	1cc
=55	=55	=55
1f	0r	1dd
1c	.	1cc
=56	=56	=56
1r	0r	1r
1e	.	1cc
=57	=57	=57
2e\	0r	2cc\
2e\	.	2cc\
2e\	.	2cc\
2e\	.	2cc\
=58	=58	=58
1e	0r	1cc
2d\	.	2b\
[2c\	.	[2a/
=59	=59	=59
2c\]	0r	2a/]
2B\	.	1g
1A	.	.
.	.	2f#i/
=60	=60	=60
0Gl	0r	0gl
=61||	=61||	=61||
*>G	*>G	*>G
!!section: Ego autem
!!!OMD: Ego autem
!!LO:TX:Z=8:t=Choir 1
1e	1g	1cc
2e\	2g\	2cc\
2e\	2g\	2cc\
=62	=62	=62
2e\	2g\	2cc\
2e\	2g\	2cc\
1c	1g	1cc
=63	=63	=63
1e	1g	1cc
2e\	2g\	2cc\
2e\	2g\	2cc\
=64	=64	=64
2e\	2g\	2cc\
2e\	2g\	2cc\
[1e	[1g	[1cc
=65	=65	=65
2e\]	2g\]	2cc\]
1f	1a	1dd
2e\	[2g\	[2cc\
=66	=66	=66
1d	2g\]	2cc\]
.	2f\	2b\
1c	1g	1cc
=67	=67	=67
1r	1r	1r
1e	1g	1cc
=68	=68	=68
2e\	2g\	2cc\
2e\	2g\	2cc\
1e	1g	1cc
=69	=69	=69
2.d\	2.f\	2.b\
4c\	4e\	4a/
2d\	2f\	2b\
[2e\	[2g\	[2cc\
=70	=70	=70
2e\]	2g\]	2cc\]
4d\	4f\	4b\
4c\	4e\	4a/
2B\	2d\	2g/
[2c\	[2e\	[2a/
=71	=71	=71
2c\]	2e\]	2a/]
2B\	1d	1g
1A	.	.
.	2c\	2f#i/
=72	=72	=72
0Gl	0dl	0gl
=73||	=73||	=73||
*>H	*>H	*>H
!!LO:TX:Z=8:t=Choir 2
!!section: Domine, in voluntate
!!!OMD: Domine, in voluntate
2e\	0r	2cc\
2e\	.	2cc\
1e	.	1cc
=74	=74	=74
1e	0r	1cc
2e\	.	2cc\
2e\	.	2cc\
=75	=75	=75
1e	0r	1cc
2e\	.	2cc\
[2f\	.	[2dd\
=76	=76	=76
4f\]	0r	4dd\]
4e\	.	4cc\
4d\	.	4b\
4c\	.	4a/
1d	.	1b
=77	=77	=77
1c	0r	1cc
1r	.	1r
=78	=78	=78
2e\	0r	2cc\
2e\	.	2cc\
1e	.	1cc
=79	=79	=79
1e	0r	1cc
1d	.	1b
=80	=80	=80
2c\	0r	2a/
2e\	.	2cc\
2d\	.	2b\
[2c\	.	[2a/
=81	=81	=81
2c\]	0r	2a/]
2B\	.	1g
1A	.	.
.	.	2f#i/
=82	=82	=82
0Gl	0r	0gl
=83||	=83||	=83||
*>I	*>I	*>I
!!LO:TX:Z=8:t=Choir 1
!!section: Avertisti faciem
!!!OMD: Avertisti faciem
2e\	2g\	2cc\
2e\	2g\	2cc\
1e	1g	1cc
=84	=84	=84
1e	1g	1cc
2e\	2g\	2cc\
2e\	2g\	2cc\
=85	=85	=85
1e	1g	1cc
1d	1f	1b
=86	=86	=86
2e\	2g\	2cc\
1f	1a	1dd
2e\	[2g\	[2cc\
=87	=87	=87
1d	2g\]	2cc\]
.	2f\	2b\
1c	1g	1cc
=88	=88	=88
1r	1r	1r
1e	1g	1cc
=89	=89	=89
2e\	2g\	2cc\
2e\	2g\	2cc\
1e	1g	1cc
=90	=90	=90
2.d\	2.f\	2.b\
4c\	4e\	4a/
2d\	2f\	2b\
[2e\	[2g\	[2cc\
=91	=91	=91
2e\]	2g\]	2cc\]
4d\	4f\	4b\
4c\	4e\	4a/
2B\	2d\	2g/
[2c\	[2e\	[2a/
=92	=92	=92
2c\]	2e\]	2a/]
2B\	1d	1g
1A	.	.
.	2c\	2f#i/
=93	=93	=93
0Gl	0dl	0gl
=94||	=94||	=94||
*>J	*>J	*>J
!!LO:TX:Z=8:t=Choir 2
!!section: Ad te, Domine
!!!OMD: Ad te, Domine
1e	0r	1cc
1e	.	1cc
=95	=95	=95
2e\	0r	2cc\
2e\	.	2cc\
1e	.	1cc
=96	=96	=96
2e\	0r	2cc\
1f	.	1dd
2e\	.	[2cc\
=97	=97	=97
1d	0r	2cc\]
.	.	2b\
1c	.	1cc
=98	=98	=98
1r	0r	1r
1e	.	1cc
=99	=99	=99
1e	0r	1cc
2e\	.	2cc\
2e\	.	2cc\
=100	=100	=100
1e	0r	1cc
1d	.	1b
=101	=101	=101
2.c\	0r	2.a/
4B\	.	4g/
2c\	.	2a/
[2d\	.	[2b\
=102	=102	=102
2d\]	0r	2b\]
4c\	.	4a/
4B\	.	4g/
2A/	.	2f#i/
2G/	.	[2g/
=103	=103	=103
1A	0r	2g/]
.	.	2f#i/
1Gl	.	1gl
=104||	=104||	=104||
*>K	*>K	*>K
!!LO:TX:Z=8:t=Choir 1
!!section: Que utilitas
!!!OMD: Que utilitas
1e	1g	1cc
1e	1g	1cc
=105	=105	=105
2e\	2g\	2cc\
2e\	2g\	2cc\
1e	1g	1cc
=106	=106	=106
1e	1g	1cc
2e\	2g\	2cc\
2e\	2g\	2cc\
=107	=107	=107
1.e	1.g	1.cc
[2f\	[2a\	[2dd\
=108	=108	=108
2f\]	2a\]	2dd\]
2e\	1g	1cc
1d	.	.
.	2f\	2b\
=109	=109	=109
1c	1g	1cc
1r	1r	1r
=110	=110	=110
1e	1g	1cc
2e\	2g\	2cc\
2e\	2g\	2cc\
=111	=111	=111
1e	1g	1cc
1d	1f	1b
=112	=112	=112
2c\	2e\	2a/
1e	1g	1cc
4d\	4f\	4b\
4c\	4e\	4a/
=113	=113	=113
2B\	2d\	2g/
1c	1e	1a
2B\	[2d\	[2g/
=114	=114	=114
1A	2d\]	2g/]
.	2c\	2f#i/
1Gl	1dl	1gl
=115||	=115||	=115||
*>L	*>L	*>L
!!section: Numquid confitebitur
!!!OMD: Numquid confitebitur
!!LO:TX:Z=8:t=Choir 2
1c	0r	1cc
1e	.	1cc
=116	=116	=116
2e\	0r	2cc\
2e\	.	2cc\
2e\	.	2cc\
2e\	.	2cc\
=117	=117	=117
1e	0r	1cc
1d	.	1b
=118	=118	=118
2e\	0r	2cc\
1f	.	1dd
2e\	.	[2cc\
=119	=119	=119
1d	0r	2cc\]
.	.	2b\
1c	.	1cc
=120	=120	=120
1r	0r	1r
1e	.	1cc
=121	=121	=121
2e\	0r	2cc\
2e\	.	2cc\
2e\	.	2cc\
2e\	.	2cc\
=122	=122	=122
1e	0r	1cc
1d	.	1b
=123	=123	=123
2c\	0r	2a/
1e	.	1cc
4d\	.	4b\
4c\	.	4a/
=124	=124	=124
2B\	0r	2g/
1c	.	1a
2B\	.	[2g/
=125	=125	=125
1A	0r	2g/]
.	.	2f#i/
1Gl	.	1gl
=126||	=126||	=126||
*>M	*>M	*>M
!!LO:TX:Z=8:t=Choir 1
!!section: Audivit Dominus
!!!OMD: Audivit Dominus
1c	1g	1cc
1e	1g	1cc
=127	=127	=127
1e	1g	1cc
2e\	2g\	2cc\
2e\	2g\	2cc\
=128	=128	=128
1e	1g	1cc
1d	1f	1b
=129	=129	=129
2c\	2e\	2a/
2d\	2f\	2b\
2e\	2g\	2cc\
[2f\	[2a\	[2dd\
=130	=130	=130
2f\]	2a\]	2dd\]
2e\	1g	1cc
1d	.	.
.	2f\	2b\
=131	=131	=131
1c	1g	1cc
1r	1r	1r
=132	=132	=132
2e\	2g\	2cc\
2e\	2g\	2cc\
1e	1g	1cc
=133	=133	=133
2e\	2g\	2cc\
2e\	2g\	2cc\
1e	1g	1cc
=134	=134	=134
1d	1f	1b
[1c	[1e	[1a
=135	=135	=135
2c\]	2e\]	2a/]
1d	1f	1b
4c\	4e\	4a/
4B\	4d\	4g/
=136	=136	=136
2A/	2c\	2f#i/
2G/	1d	1g
1A	.	.
.	2c\	2f#i/
=137	=137	=137
0Gl	0dl	0gl
=138||	=138||	=138||
*>N	*>N	*>N
!!section: Convertisti planctum
!!!OMD: Convertisti planctum
!!LO:TX:Z=8:t=Choir 2
2e\	0r	2cc\
2e\	.	2cc\
1e	.	1cc
=139	=139	=139
1e	0r	1cc
1e	.	1cc
=140	=140	=140
2e\	0r	2cc\
2e\	.	2cc\
1e	.	1cc
=141	=141	=141
1d	0r	1b
2e\	.	2cc\
[2f\	.	[2dd\
=142	=142	=142
2f\]	0r	2dd\]
2e\	.	1cc
1d	.	.
.	.	2b\
=143	=143	=143
1c	0r	1cc
1r	.	1r
=144	=144	=144
2e\	0r	2cc\
2e\	.	2cc\
1e	.	1cc
=145	=145	=145
1e	0r	1cc
2d\	.	2b\
2c\	.	2a/
=146	=146	=146
1d	0r	1b
1c	.	1cc
=147	=147	=147
1e	0r	1cc
1e	.	1cc
=148	=148	=148
2e\	0r	2cc\
2e\	.	2cc\
2e\	.	2cc\
2e\	.	2cc\
=149	=149	=149
1e	0r	1cc
2d\	.	2b\
[2c\	.	[2a/
=150	=150	=150
2c\]	0r	2a/]
2B\	.	1g
1A	.	.
.	.	2f#i/
=151	=151	=151
0Gl	0r	0gl
=152||	=152||	=152||
*>O	*>O	*>O
!!LO:TX:Z=8:t=Choir 1
!!section: Ut cantet tibi
!!!OMD: Ut cantet tibi
1e	1g	1cc
1e	1g	1cc
=153	=153	=153
2e\	2g\	2cc\
2e\	2g\	2cc\
1e	1g	1cc
=154	=154	=154
2e\	2g\	2cc\
2e\	2g\	2cc\
2e\	2g\	2cc\
2e\	2g\	2cc\
=155	=155	=155
1e	1g	1cc
1d	1f	1b
=156	=156	=156
2e\	2g\	2cc\
1f	1a	1dd
2e\	[2g\	[2cc\
=157	=157	=157
1d	2g\]	2cc\]
.	2f\	2b\
1c	1g	1cc
=158	=158	=158
1r	1r	1r
2e\	2g\	2cc\
2e\	2g\	2cc\
=159	=159	=159
1e	1g	1cc
2e\	2g\	2cc\
2e\	2g\	2cc\
=160	=160	=160
1e	1g	1cc
2e\	2g\	2cc\
2e\	2g\	2cc\
=161	=161	=161
2e\	2g\	2cc\
2e\	2g\	2cc\
1e	1g	1cc
=162	=162	=162
1d	1f#i	1b
1c	1e	1a
=163	=163	=163
2B\	2d\	2g/
2c\	2e\	2a/
2d\	2f#i\	2b\
[2e\	[2g\	[2cc\
=164	=164	=164
2e\]	2g\]	2cc\]
2d\	1f#i	1b
1c	.	.
.	2e\	2a/
=165	=165	=165
0Bl	0f#il	0bl
==	==	==
*-	*-	*-
!!!RDF**kern: l=long note in original notation
!!!RDF**kern: i=editorial accidental
!!!ENC:	Chris Gage 03-26-2014
!!!END:	2014/10/09/
!!!EED:	Jesse Rodin
!!!EEV:	2014/10/17/
!!!ONB:	Translated from MusicXML and edited on 2014/10/17/ by Craig Sapp
!!muse2ps: C^@{COM}^i2I150v85,85,150Q16
